X:1
T:James Gibb editions
T:Now the day is over (I) - Barnby
%%score [ ( 1 2 ) ( 3 4 ) ]
L:1/8
Q:1/4=160
M:none
K:A
V:1 treble nm="Midi_74"
V:2 treble 
V:3 bass nm="Midi_74"
V:4 bass 
V:1
"^Now the day is over (I)""^Joseph Barnby\n(1838-96)""^65. 65""^Sabine Baring Gould\n(1834-1924)"!p! E4 E4 E4 E4 | %1
 E8 E8 || F4 F4 ^E4 (F2 G2) |!<(! (F8- A8)!<)! ||[M:4/2]!f! A6 A2 G4 F4 |!>(! E8!>)! E8 || %6
!p! E6"^1" E2 E4 E4 | E16 || F8 E8 |] %9
V:2
 C4 C4 B,4 (C2 D2) | C8 C8 || C4 C4 C4 C4 | C16 ||[M:4/2] C6 C2 ^D4 D4 | E8 E8 || D6 D2 D4 E4 | %7
w: Now the day is *|o- ver,|Night is draw- ing|nigh,|Sha- dows of the|eve- ning|Steal a\-~~ cross the|
 C16 || D8 C8 |] %9
w: sky.|A- men.|
V:3
 A,4 A,4 G,4 G,4 | A,8 A,8 ||"^1" A,4"^1" A,4"^1" G,4 B,4 | (A,4 C4 F4 E4) || %4
[M:4/2]"^2 Jesus, give the weary\nCalm and sweet repose;\nWith Thy tend'rest blessing\nMay our eyelids close.\n\n3 Grant to little children\nVisions bright of Thee;\nGuard the sailors tossing\nOn the deep blue sea." ^D4 F,4 B,4 A,4 | %5
 G,8 A,8 || %6
"^4 Comfort ev'ry suff'rer\nWatching late in pain;\nThose who plan some evil\nFrom their sin restrain.\n\n5 When the morning wakens,\nThen may I arise\nPure, and fresh, and sinless\nIn Thy holy eyes." A,4 G,4 F,4 G,4 | %7
 A,16 || A,8 A,8 |] %9
V:4
 A,4 E,4 G,4 E,4 | (A,4 E,4) (C,4 A,,4) || F,,4 A,,4 C,4 C,4 | F,16 ||[M:4/2] B,,6 B,,2 B,,4 B,,4 | %5
w: |||||
 E,4 !courtesy!=D,4 C,4 =C,4 || B,,12 B,,4 | A,,16 || D,8 A,,8 |] %9
w: eve- ning Steal a-|cross the|sky.||

